images/126769.svg

<?xml version="1.0" encoding="UTF-8"?>
<svg xmlns="http://www.w3.org/2000/svg" xmlns:xlink="http://www.w3.org/1999/xlink" width="300pt" height="300pt" viewBox="0 0 300 300" version="1.1">
<defs>
<g>
<symbol overflow="visible" id="glyph0-0">
<path style="stroke:none;" d="M 0.546875 1.9375 L 0.546875 -7.75 L 6.046875 -7.75 L 6.046875 1.9375 Z M 1.171875 1.328125 L 5.4375 1.328125 L 5.4375 -7.140625 L 1.171875 -7.140625 Z M 1.171875 1.328125 "/>
</symbol>
<symbol overflow="visible" id="glyph0-1">
<path style="stroke:none;" d="M 1.078125 -8.015625 L 2.546875 -8.015625 L 6.09375 -1.3125 L 6.09375 -8.015625 L 7.15625 -8.015625 L 7.15625 0 L 5.6875 0 L 2.125 -6.703125 L 2.125 0 L 1.078125 0 Z M 1.078125 -8.015625 "/>
</symbol>
<symbol overflow="visible" id="glyph0-2">
<path style="stroke:none;" d="M 1.078125 -8.015625 L 2.171875 -8.015625 L 2.171875 -4.734375 L 6.109375 -4.734375 L 6.109375 -8.015625 L 7.1875 -8.015625 L 7.1875 0 L 6.109375 0 L 6.109375 -3.8125 L 2.171875 -3.8125 L 2.171875 0 L 1.078125 0 Z M 1.078125 -8.015625 "/>
</symbol>
<symbol overflow="visible" id="glyph0-3">
<path style="stroke:none;" d="M 4.328125 -7.28125 C 3.546875 -7.28125 2.921875 -6.984375 2.453125 -6.390625 C 1.992188 -5.804688 1.765625 -5.007812 1.765625 -4 C 1.765625 -2.988281 1.992188 -2.1875 2.453125 -1.59375 C 2.921875 -1.007812 3.546875 -0.71875 4.328125 -0.71875 C 5.117188 -0.71875 5.742188 -1.007812 6.203125 -1.59375 C 6.660156 -2.1875 6.890625 -2.988281 6.890625 -4 C 6.890625 -5.007812 6.660156 -5.804688 6.203125 -6.390625 C 5.742188 -6.984375 5.117188 -7.28125 4.328125 -7.28125 Z M 4.328125 -8.171875 C 5.453125 -8.171875 6.351562 -7.789062 7.03125 -7.03125 C 7.707031 -6.28125 8.046875 -5.269531 8.046875 -4 C 8.046875 -2.738281 7.707031 -1.726562 7.03125 -0.96875 C 6.351562 -0.21875 5.453125 0.15625 4.328125 0.15625 C 3.203125 0.15625 2.300781 -0.21875 1.625 -0.96875 C 0.957031 -1.71875 0.625 -2.726562 0.625 -4 C 0.625 -5.269531 0.957031 -6.28125 1.625 -7.03125 C 2.300781 -7.789062 3.203125 -8.171875 4.328125 -8.171875 Z M 4.328125 -8.171875 "/>
</symbol>
</g>
</defs>
<g id="surface53657">
<rect x="0" y="0" width="300" height="300" style="fill:rgb(100%,100%,100%);fill-opacity:1;stroke:none;"/>
<path style="fill:none;stroke-width:1.2;stroke-linecap:butt;stroke-linejoin:miter;stroke:rgb(0%,0%,0%);stroke-opacity:1;stroke-miterlimit:10;" d="M 39.984375 185.589844 L 44.914062 172.988281 "/>
<path style="fill:none;stroke-width:1.2;stroke-linecap:butt;stroke-linejoin:miter;stroke:rgb(0%,0%,100%);stroke-opacity:1;stroke-miterlimit:10;" d="M 44.914062 172.988281 L 49.84375 160.390625 "/>
<path style="fill:none;stroke-width:1.2;stroke-linecap:butt;stroke-linejoin:miter;stroke:rgb(0%,0%,100%);stroke-opacity:1;stroke-miterlimit:10;" d="M 49.84375 160.390625 L 42.546875 148.996094 "/>
<path style="fill:none;stroke-width:1.2;stroke-linecap:butt;stroke-linejoin:miter;stroke:rgb(0%,0%,0%);stroke-opacity:1;stroke-miterlimit:10;" d="M 42.546875 148.996094 L 35.25 137.605469 "/>
<path style="fill:none;stroke-width:1.2;stroke-linecap:butt;stroke-linejoin:miter;stroke:rgb(0%,0%,0%);stroke-opacity:1;stroke-miterlimit:10;" d="M 76.023438 153.554688 L 62.933594 156.972656 "/>
<path style="fill:none;stroke-width:1.2;stroke-linecap:butt;stroke-linejoin:miter;stroke:rgb(0%,0%,100%);stroke-opacity:1;stroke-miterlimit:10;" d="M 62.933594 156.972656 L 49.84375 160.390625 "/>
<path style=" stroke:none;fill-rule:nonzero;fill:rgb(100%,100%,100%);fill-opacity:1;" d="M 45.84375 153.890625 L 53.84375 153.890625 L 53.84375 166.890625 L 45.84375 166.890625 Z M 45.84375 153.890625 "/>
<g style="fill:rgb(0%,0%,100%);fill-opacity:1;">
  <use xlink:href="#glyph0-1" x="45.84375" y="163.791992"/>
</g>
<path style="fill:none;stroke-width:1.2;stroke-linecap:butt;stroke-linejoin:miter;stroke:rgb(0%,0%,0%);stroke-opacity:1;stroke-miterlimit:10;" d="M 35.25 137.605469 L 52.410156 116.683594 "/>
<path style="fill:none;stroke-width:1.2;stroke-linecap:butt;stroke-linejoin:miter;stroke:rgb(0%,0%,0%);stroke-opacity:1;stroke-miterlimit:10;" d="M 41.886719 139.550781 L 55.617188 122.816406 "/>
<path style="fill:none;stroke-width:1.2;stroke-linecap:butt;stroke-linejoin:miter;stroke:rgb(0%,0%,0%);stroke-opacity:1;stroke-miterlimit:10;" d="M 52.410156 116.683594 L 77.609375 126.542969 "/>
<path style="fill:none;stroke-width:1.2;stroke-linecap:butt;stroke-linejoin:miter;stroke:rgb(0%,0%,0%);stroke-opacity:1;stroke-miterlimit:10;" d="M 77.609375 126.542969 L 76.023438 153.554688 "/>
<path style="fill:none;stroke-width:1.2;stroke-linecap:butt;stroke-linejoin:miter;stroke:rgb(0%,0%,0%);stroke-opacity:1;stroke-miterlimit:10;" d="M 83.808594 129.617188 L 82.535156 151.226562 "/>
<path style="fill:none;stroke-width:1.2;stroke-linecap:butt;stroke-linejoin:miter;stroke:rgb(0%,0%,0%);stroke-opacity:1;stroke-miterlimit:10;" d="M 101.796875 114.410156 L 77.609375 126.542969 "/>
<path style="fill:none;stroke-width:1.2;stroke-linecap:butt;stroke-linejoin:miter;stroke:rgb(0%,0%,0%);stroke-opacity:1;stroke-miterlimit:10;" d="M 76.023438 153.554688 L 98.621094 168.433594 "/>
<path style="fill:none;stroke-width:1.2;stroke-linecap:butt;stroke-linejoin:miter;stroke:rgb(0%,0%,0%);stroke-opacity:1;stroke-miterlimit:10;" d="M 98.621094 168.433594 L 122.808594 156.304688 "/>
<path style="fill:none;stroke-width:1.2;stroke-linecap:butt;stroke-linejoin:miter;stroke:rgb(0%,0%,0%);stroke-opacity:1;stroke-miterlimit:10;" d="M 98.183594 161.53125 L 117.535156 151.824219 "/>
<path style="fill:none;stroke-width:1.2;stroke-linecap:butt;stroke-linejoin:miter;stroke:rgb(0%,0%,0%);stroke-opacity:1;stroke-miterlimit:10;" d="M 122.808594 156.304688 L 124.394531 129.292969 "/>
<path style="fill:none;stroke-width:1.2;stroke-linecap:butt;stroke-linejoin:miter;stroke:rgb(0%,0%,0%);stroke-opacity:1;stroke-miterlimit:10;" d="M 124.394531 129.292969 L 101.796875 114.410156 "/>
<path style="fill:none;stroke-width:1.2;stroke-linecap:butt;stroke-linejoin:miter;stroke:rgb(0%,0%,0%);stroke-opacity:1;stroke-miterlimit:10;" d="M 118.632812 133.121094 L 100.554688 121.21875 "/>
<path style="fill:none;stroke-width:1.2;stroke-linecap:butt;stroke-linejoin:miter;stroke:rgb(0%,0%,0%);stroke-opacity:1;stroke-miterlimit:10;" d="M 124.394531 129.292969 L 136.488281 123.226562 "/>
<path style="fill:none;stroke-width:1.2;stroke-linecap:butt;stroke-linejoin:miter;stroke:rgb(0%,0%,100%);stroke-opacity:1;stroke-miterlimit:10;" d="M 136.488281 123.226562 L 148.582031 117.164062 "/>
<path style="fill:none;stroke-width:1.2;stroke-linecap:butt;stroke-linejoin:miter;stroke:rgb(0%,0%,100%);stroke-opacity:1;stroke-miterlimit:10;" d="M 148.582031 117.164062 L 159.882812 124.601562 "/>
<path style="fill:none;stroke-width:1.2;stroke-linecap:butt;stroke-linejoin:miter;stroke:rgb(0%,0%,0%);stroke-opacity:1;stroke-miterlimit:10;" d="M 159.882812 124.601562 L 171.179688 132.042969 "/>
<path style=" stroke:none;fill-rule:nonzero;fill:rgb(100%,100%,100%);fill-opacity:1;" d="M 140.582031 110.664062 L 157.582031 110.664062 L 157.582031 123.664062 L 140.582031 123.664062 Z M 140.582031 110.664062 "/>
<g style="fill:rgb(0%,0%,100%);fill-opacity:1;">
  <use xlink:href="#glyph0-1" x="140.582031" y="120.56543"/>
  <use xlink:href="#glyph0-2" x="148.56543" y="120.56543"/>
</g>
<path style="fill:none;stroke-width:1.2;stroke-linecap:butt;stroke-linejoin:miter;stroke:rgb(0%,0%,0%);stroke-opacity:1;stroke-miterlimit:10;" d="M 168.003906 131.855469 L 167.207031 145.363281 "/>
<path style="fill:none;stroke-width:1.2;stroke-linecap:butt;stroke-linejoin:miter;stroke:rgb(100%,0%,0%);stroke-opacity:1;stroke-miterlimit:10;" d="M 167.207031 145.363281 L 166.414062 158.867188 "/>
<path style="fill:none;stroke-width:1.2;stroke-linecap:butt;stroke-linejoin:miter;stroke:rgb(0%,0%,0%);stroke-opacity:1;stroke-miterlimit:10;" d="M 174.359375 132.230469 L 173.5625 145.734375 "/>
<path style="fill:none;stroke-width:1.2;stroke-linecap:butt;stroke-linejoin:miter;stroke:rgb(100%,0%,0%);stroke-opacity:1;stroke-miterlimit:10;" d="M 173.5625 145.734375 L 172.769531 159.242188 "/>
<path style="fill:none;stroke-width:1.2;stroke-linecap:butt;stroke-linejoin:miter;stroke:rgb(0%,0%,0%);stroke-opacity:1;stroke-miterlimit:10;" d="M 171.179688 132.042969 L 183.273438 125.976562 "/>
<path style="fill:none;stroke-width:1.2;stroke-linecap:butt;stroke-linejoin:miter;stroke:rgb(0%,0%,100%);stroke-opacity:1;stroke-miterlimit:10;" d="M 183.273438 125.976562 L 195.367188 119.914062 "/>
<path style=" stroke:none;fill-rule:nonzero;fill:rgb(100%,100%,100%);fill-opacity:1;" d="M 165.59375 152.554688 L 174.59375 152.554688 L 174.59375 165.554688 L 165.59375 165.554688 Z M 165.59375 152.554688 "/>
<g style="fill:rgb(100%,0%,0%);fill-opacity:1;">
  <use xlink:href="#glyph0-3" x="165.59375" y="162.456055"/>
</g>
<path style="fill:none;stroke-width:1.2;stroke-linecap:butt;stroke-linejoin:miter;stroke:rgb(0%,0%,100%);stroke-opacity:1;stroke-miterlimit:10;" d="M 195.367188 119.914062 L 206.664062 127.351562 "/>
<path style="fill:none;stroke-width:1.2;stroke-linecap:butt;stroke-linejoin:miter;stroke:rgb(0%,0%,0%);stroke-opacity:1;stroke-miterlimit:10;" d="M 206.664062 127.351562 L 217.964844 134.792969 "/>
<path style=" stroke:none;fill-rule:nonzero;fill:rgb(100%,100%,100%);fill-opacity:1;" d="M 187.367188 113.414062 L 204.367188 113.414062 L 204.367188 126.414062 L 187.367188 126.414062 Z M 187.367188 113.414062 "/>
<g style="fill:rgb(0%,0%,100%);fill-opacity:1;">
  <use xlink:href="#glyph0-1" x="187.367188" y="123.31543"/>
  <use xlink:href="#glyph0-2" x="195.350586" y="123.31543"/>
</g>
<path style="fill:none;stroke-width:1.2;stroke-linecap:butt;stroke-linejoin:miter;stroke:rgb(0%,0%,0%);stroke-opacity:1;stroke-miterlimit:10;" d="M 217.964844 134.792969 L 216.378906 161.804688 "/>
<path style="fill:none;stroke-width:1.2;stroke-linecap:butt;stroke-linejoin:miter;stroke:rgb(0%,0%,0%);stroke-opacity:1;stroke-miterlimit:10;" d="M 224.160156 137.867188 L 222.890625 159.476562 "/>
<path style="fill:none;stroke-width:1.2;stroke-linecap:butt;stroke-linejoin:miter;stroke:rgb(0%,0%,0%);stroke-opacity:1;stroke-miterlimit:10;" d="M 242.152344 122.664062 L 217.964844 134.792969 "/>
<path style="fill:none;stroke-width:1.2;stroke-linecap:butt;stroke-linejoin:miter;stroke:rgb(0%,0%,0%);stroke-opacity:1;stroke-miterlimit:10;" d="M 216.378906 161.804688 L 227.675781 169.246094 "/>
<path style="fill:none;stroke-width:1.2;stroke-linecap:butt;stroke-linejoin:miter;stroke:rgb(0%,0%,100%);stroke-opacity:1;stroke-miterlimit:10;" d="M 227.675781 169.246094 L 238.976562 176.6875 "/>
<path style="fill:none;stroke-width:1.2;stroke-linecap:butt;stroke-linejoin:miter;stroke:rgb(0%,0%,100%);stroke-opacity:1;stroke-miterlimit:10;" d="M 238.976562 176.6875 L 251.070312 170.621094 "/>
<path style="fill:none;stroke-width:1.2;stroke-linecap:butt;stroke-linejoin:miter;stroke:rgb(0%,0%,0%);stroke-opacity:1;stroke-miterlimit:10;" d="M 251.070312 170.621094 L 263.160156 164.554688 "/>
<path style="fill:none;stroke-width:1.2;stroke-linecap:butt;stroke-linejoin:miter;stroke:rgb(0%,0%,100%);stroke-opacity:1;stroke-miterlimit:10;" d="M 238.539062 169.78125 L 248.214844 164.929688 "/>
<path style="fill:none;stroke-width:1.2;stroke-linecap:butt;stroke-linejoin:miter;stroke:rgb(0%,0%,0%);stroke-opacity:1;stroke-miterlimit:10;" d="M 248.214844 164.929688 L 257.890625 160.078125 "/>
<path style=" stroke:none;fill-rule:nonzero;fill:rgb(100%,100%,100%);fill-opacity:1;" d="M 234.976562 170.1875 L 242.976562 170.1875 L 242.976562 183.1875 L 234.976562 183.1875 Z M 234.976562 170.1875 "/>
<g style="fill:rgb(0%,0%,100%);fill-opacity:1;">
  <use xlink:href="#glyph0-1" x="234.976562" y="180.088867"/>
</g>
<path style="fill:none;stroke-width:1.2;stroke-linecap:butt;stroke-linejoin:miter;stroke:rgb(0%,0%,0%);stroke-opacity:1;stroke-miterlimit:10;" d="M 263.160156 164.554688 L 264.75 137.542969 "/>
<path style="fill:none;stroke-width:1.2;stroke-linecap:butt;stroke-linejoin:miter;stroke:rgb(0%,0%,0%);stroke-opacity:1;stroke-miterlimit:10;" d="M 264.75 137.542969 L 242.152344 122.664062 "/>
<path style="fill:none;stroke-width:1.2;stroke-linecap:butt;stroke-linejoin:miter;stroke:rgb(0%,0%,0%);stroke-opacity:1;stroke-miterlimit:10;" d="M 258.988281 141.375 L 240.910156 129.46875 "/>
</g>
</svg>

<svg xmlns="http://www.w3.org/2000/svg" xmlns:xlink="http://www.w3.org/1999/xlink" width="300pt" height="300pt" viewBox="0 0 300 300"><defs><symbol overflow="visible"><path d="M.547 1.938V-7.75h5.5v9.688zm.625-.61h4.266v-8.47H1.171zm0 0"/></symbol><symbol overflow="visible" id="a"><path d="M1.078-8.016h1.47l3.546 6.704v-6.704h1.062V0H5.688L2.124-6.703V0H1.078zm0 0"/></symbol><symbol overflow="visible" id="b"><path d="M1.078-8.016h1.094v3.282H6.11v-3.282h1.077V0H6.11v-3.813H2.17V0H1.078zm0 0"/></symbol><symbol overflow="visible" id="c"><path d="M4.328-7.28c-.78 0-1.406.296-1.875.89-.46.585-.687 1.382-.687 2.39 0 1.012.226 1.813.687 2.406.47.586 1.094.875 1.875.875.79 0 1.414-.288 1.875-.874.457-.593.688-1.394.688-2.406 0-1.008-.23-1.805-.687-2.39-.46-.594-1.086-.89-1.875-.89zm0-.892c1.125 0 2.024.383 2.703 1.14C7.708-6.28 8.048-5.27 8.048-4c0 1.262-.34 2.273-1.016 3.03C6.353-.22 5.454.157 4.33.157S2.3-.22 1.625-.97c-.668-.75-1-1.757-1-3.03 0-1.27.332-2.28 1-3.03.676-.76 1.578-1.142 2.703-1.142zm0 0"/></symbol></defs><g><path fill="#fff" d="M0 0h300v300H0z"/><path d="M39.984 185.59l4.93-12.602" stroke-width="1.2" stroke="#000" stroke-miterlimit="10" fill="none"/><path d="M44.914 172.988l4.93-12.597M49.844 160.39l-7.297-11.394" stroke-width="1.2" stroke="#00f" stroke-miterlimit="10" fill="none"/><path d="M42.547 148.996l-7.297-11.39M76.023 153.555l-13.09 3.418" stroke-width="1.2" stroke="#000" stroke-miterlimit="10" fill="none"/><path d="M62.934 156.973l-13.09 3.418" stroke-width="1.2" stroke="#00f" stroke-miterlimit="10" fill="none"/><path d="M45.844 153.89h8v13h-8zm0 0" fill="#fff"/><use xlink:href="#a" x="45.844" y="163.792" fill="#00f"/><path d="M35.25 137.605l17.16-20.92M41.887 139.55l13.73-16.734M52.41 116.684l25.2 9.86M77.61 126.543l-1.587 27.012M83.81 129.617l-1.275 21.61M101.797 114.41L77.61 126.543M76.023 153.555l22.598 14.88M98.62 168.434l24.19-12.13M98.184 161.53l19.35-9.706M122.81 156.305l1.585-27.012M124.395 129.293l-22.598-14.883M118.633 133.12l-18.078-11.9M124.395 129.293l12.093-6.066" stroke-width="1.2" stroke="#000" stroke-miterlimit="10" fill="none"/><path d="M136.488 123.227l12.094-6.063M148.582 117.164l11.3 7.438" stroke-width="1.2" stroke="#00f" stroke-miterlimit="10" fill="none"/><path d="M159.883 124.602l11.297 7.44" stroke-width="1.2" stroke="#000" stroke-miterlimit="10" fill="none"/><path d="M140.582 110.664h17v13h-17zm0 0" fill="#fff"/><g fill="#00f"><use xlink:href="#a" x="140.582" y="120.565"/><use xlink:href="#b" x="148.565" y="120.565"/></g><path d="M168.004 131.855l-.797 13.508" stroke-width="1.2" stroke="#000" stroke-miterlimit="10" fill="none"/><path d="M167.207 145.363l-.793 13.504" stroke-width="1.2" stroke="#f00" stroke-miterlimit="10" fill="none"/><path d="M174.36 132.23l-.798 13.504" stroke-width="1.2" stroke="#000" stroke-miterlimit="10" fill="none"/><path d="M173.563 145.734l-.793 13.508" stroke-width="1.2" stroke="#f00" stroke-miterlimit="10" fill="none"/><path d="M171.18 132.043l12.093-6.066" stroke-width="1.2" stroke="#000" stroke-miterlimit="10" fill="none"/><path d="M183.273 125.977l12.094-6.063" stroke-width="1.2" stroke="#00f" stroke-miterlimit="10" fill="none"/><path d="M165.594 152.555h9v13h-9zm0 0" fill="#fff"/><use xlink:href="#c" x="165.594" y="162.456" fill="#f00"/><path d="M195.367 119.914l11.297 7.438" stroke-width="1.2" stroke="#00f" stroke-miterlimit="10" fill="none"/><path d="M206.664 127.352l11.3 7.44" stroke-width="1.2" stroke="#000" stroke-miterlimit="10" fill="none"/><path d="M187.367 113.414h17v13h-17zm0 0" fill="#fff"/><g fill="#00f"><use xlink:href="#a" x="187.367" y="123.315"/><use xlink:href="#b" x="195.351" y="123.315"/></g><path d="M217.965 134.793l-1.586 27.012M224.16 137.867l-1.27 21.61M242.152 122.664l-24.187 12.13M216.38 161.805l11.296 7.44" stroke-width="1.2" stroke="#000" stroke-miterlimit="10" fill="none"/><path d="M227.676 169.246l11.3 7.44M238.977 176.688l12.093-6.067" stroke-width="1.2" stroke="#00f" stroke-miterlimit="10" fill="none"/><path d="M251.07 170.62l12.09-6.065" stroke-width="1.2" stroke="#000" stroke-miterlimit="10" fill="none"/><path d="M238.54 169.78l9.675-4.85" stroke-width="1.2" stroke="#00f" stroke-miterlimit="10" fill="none"/><path d="M248.215 164.93l9.676-4.852" stroke-width="1.2" stroke="#000" stroke-miterlimit="10" fill="none"/><path d="M234.977 170.188h8v13h-8zm0 0" fill="#fff"/><use xlink:href="#a" x="234.977" y="180.089" fill="#00f"/><path d="M263.16 164.555l1.59-27.012M264.75 137.543l-22.598-14.88M258.988 141.375L240.91 129.47" stroke-width="1.2" stroke="#000" stroke-miterlimit="10" fill="none"/></g></svg>
